icons/video.svg

<svg xmlns="http://www.w3.org/2000/svg" width="24" height="24" viewBox="0 0 24 24"><path d="M23.5 8H.5a.5.5 0 0 0-.5.5v12.6C0 22.147.87 23 1.938 23h20.125C23.13 23 24 22.147 24 21.1V8.5a.5.5 0 0 0-.5-.5zM23 21.1c0 .497-.42.9-.938.9H1.938C1.42 22 1 21.596 1 21.1V9h22v12.1z"/><path d="M8.5 20a.505.505 0 0 0 .224-.053l8-4a.5.5 0 0 0 0-.894l-8-4A.5.5 0 0 0 8 11.5v8a.5.5 0 0 0 .5.5zm.5-7.69l6.382 3.19L9 18.69v-6.38zM22.5 1h-21C.673 1 0 1.673 0 2.5v4a.5.5 0 0 0 .5.5h23a.5.5 0 0 0 .5-.5v-4c0-.827-.673-1.5-1.5-1.5zm.465 1.328L19.293 6h-2.585l4-4H22.5c.215 0 .395.138.465.328zM8.707 2h2.586l-4 4H4.707l4-4zM3.293 6H1.208l4-4h2.085l-4 4zm9.414-4h2.586l-4 4H8.707l4-4zm4 0h2.586l-4 4h-2.586l4-4zM1.5 2h2.294L1 4.794V2.5a.5.5 0 0 1 .5-.5zm19.207 4L23 3.707V6h-2.293z"/></svg>

<?xml version="1.0" encoding="utf-8"?>
<!-- Generator: Adobe Illustrator 16.0.0, SVG Export Plug-In . SVG Version: 6.00 Build 0)  -->
<!DOCTYPE svg PUBLIC "-//W3C//DTD SVG 1.1//EN" "http://www.w3.org/Graphics/SVG/1.1/DTD/svg11.dtd">
<svg version="1.1" id="Outline_Icons" xmlns="http://www.w3.org/2000/svg" xmlns:xlink="http://www.w3.org/1999/xlink" x="0px"
	 y="0px" width="24px" height="24px" viewBox="0 0 24 24" enable-background="new 0 0 24 24" xml:space="preserve">
<g>
	<path d="M23.5,8h-23C0.224,8,0,8.224,0,8.5v12.6C0,22.147,0.869,23,1.938,23h20.125C23.131,23,24,22.147,24,21.1V8.5
		C24,8.224,23.776,8,23.5,8z M23,21.1c0,0.497-0.42,0.9-0.938,0.9H1.938C1.42,22,1,21.596,1,21.1V9h22V21.1z"/>
	<path d="M8.5,20c0.077,0,0.153-0.018,0.224-0.053l8-4C16.893,15.862,17,15.689,17,15.5s-0.107-0.362-0.276-0.447l-8-4
		c-0.155-0.077-0.339-0.069-0.486,0.022S8,11.327,8,11.5v8c0,0.173,0.09,0.334,0.237,0.425C8.317,19.975,8.409,20,8.5,20z M9,12.309
		l6.382,3.191L9,18.691V12.309z"/>
	<path d="M22.5,1h-21C0.673,1,0,1.673,0,2.5v4C0,6.776,0.224,7,0.5,7h23C23.776,7,24,6.776,24,6.5v-4C24,1.673,23.327,1,22.5,1z
		 M22.965,2.328L19.293,6h-2.585l3.999-4H22.5C22.715,2,22.895,2.138,22.965,2.328z M8.707,2h2.586l-4,4H4.707L8.707,2z M3.293,6
		H1.208l4-4h2.085L3.293,6z M12.707,2h2.586l-4,4H8.707L12.707,2z M16.707,2h2.586l-3.999,4h-2.587L16.707,2z M1.5,2h2.294L1,4.794
		V2.5C1,2.224,1.224,2,1.5,2z M20.707,6L23,3.707V6H20.707z"/>
</g>
</svg>
